src/assets/selectIcons/arma_2.svg

<svg xmlns="http://www.w3.org/2000/svg" viewBox="0 0 512 512"><path d="M0 0h512v512H0z"/><path fill="#fff" d="M335.656 19.53c-24.51.093-48.993 5.235-71.062 15.626-22.46 10.577-43.112 34.202-58.375 62.563-15.264 28.36-25.182 61.262-27.69 88.75-7.487 82.112-51.926 155.352-159.78 252.56l-.188 21.44C89.216 403.443 139.915 346.632 176.313 290l.063.03c-9.293 32.473-22.623 63.18-43.594 87.97-31.47 35.584-69.222 71.1-114.468 106.53l-.062 8.25 25 .064h.47l1.28-1.156c24.405-16.498 48.607-31.488 72.594-41.5l.187.187-46.436 42.5 28.937.063c48.372-41.685 94.714-90.58 129.626-137 33.587-44.658 56.02-87.312 60.688-116.844-1.268-2.32-2.552-4.628-3.656-7.094-18.833-42.06-4.273-96.424 40.218-116.063 32.73-14.45 74.854-3.165 90.438 31.344.15.333.324.634.47.97 13.302 24.062 6.175 49.48-9.345 61.97-7.866 6.328-18.442 9.528-28.75 6.56-10.31-2.966-19.043-11.772-24.5-25.124l17.28-7.062c3.992 9.764 8.667 13.15 12.375 14.22 3.708 1.066 7.767.148 11.875-3.158 8.216-6.61 14.282-21.91 4.406-39.03l-.28-.47-.22-.5c-10.7-24.82-41.96-33.333-66.22-22.625-34.063 15.037-45.594 58.052-30.686 91.345 20.527 45.846 77.97 61.177 122.375 40.875 60.157-27.5 80.13-103.328 53.094-161.813-24.737-53.503-81.41-82.484-138.908-83.843-1.633-.04-3.272-.07-4.906-.063zm-25.75 26.72c3.238.035 6.363.348 9.406.906 10.343 1.898 19.946 6.753 29.032 13.25-30.623-5.437-58.324 4.612-80.78 24.782-22.44 20.152-39.16 50.59-45.783 84.718-4.655-11.358-7.166-21.462-6.686-31.72.296-6.343 1.715-12.956 4.78-20.217 9.094-18.016 21.032-33.946 35.22-46.69 7.824-7.026 16.39-13.07 25.53-17.905 10.932-5.212 20.522-7.22 29.282-7.125zm122.938 62.313c22.583 13.167 34.365 41.86 32.937 70.656-.564 11.395-3.466 22.975-8.905 33.624-12.48 18.937-35.53 25.51-49.97 20.875l-.092-.25c27.943-10.365 39.18-32.377 40.312-55.19.124-2.5.115-4.994-.03-7.468 1.447-13.31-.412-28.793-5.47-43.437-2.244-6.496-5.15-12.89-8.844-18.72l.064-.093zm-135.563 1.312c-20.97 19.342-29.406 35.252-33.25 51.25-3.848 16.023-2.788 32.84-2.905 52.875-.14 23.79-2.56 51.542-18.438 85.688-.005.012-.025.018-.03.03-21.095 26.753-45.276 52.25-68.907 67.376l-.063-.03c64.195-71.545 68.527-114.792 68.75-153.19.112-19.197-1.253-37.594 3.438-57.124.57-2.37 1.233-4.742 2-7.125h.03c8.098-17.036 16.572-26.058 25.47-31.563 7.18-4.44 15.035-6.697 23.906-8.187z"/></svg>

<?xml version="1.0" encoding="UTF-8" standalone="no"?>
<!DOCTYPE svg PUBLIC "-//W3C//DTD SVG 1.1//EN" "http://www.w3.org/Graphics/SVG/1.1/DTD/svg11.dtd">
<svg width="100%" height="100%" viewBox="0 0 512 512" version="1.1" xmlns="http://www.w3.org/2000/svg" xmlns:xlink="http://www.w3.org/1999/xlink" xml:space="preserve" xmlns:serif="http://www.serif.com/" style="fill-rule:evenodd;clip-rule:evenodd;stroke-linejoin:round;stroke-miterlimit:2;">
    <rect x="0" y="0" width="512" height="512" style="fill-rule:nonzero;"/>
    <path d="M335.656,19.53C311.146,19.623 286.663,24.765 264.594,35.156C242.134,45.733 221.482,69.358 206.219,97.719C190.955,126.079 181.037,158.981 178.529,186.469C171.042,268.581 126.603,341.821 18.749,439.029L18.561,460.469C89.216,403.443 139.915,346.632 176.313,290L176.376,290.03C167.083,322.503 153.753,353.21 132.782,378C101.312,413.584 63.56,449.1 18.314,484.53L18.252,492.78L43.252,492.844L43.722,492.844L45.002,491.688C69.407,475.19 93.609,460.2 117.596,450.188L117.783,450.375L71.347,492.875L100.284,492.938C148.656,451.253 194.998,402.358 229.91,355.938C263.497,311.28 285.93,268.626 290.598,239.094C289.33,236.774 288.046,234.466 286.942,232C268.109,189.94 282.669,135.576 327.16,115.937C359.89,101.487 402.014,112.772 417.598,147.281C417.748,147.614 417.922,147.915 418.068,148.251C431.37,172.313 424.243,197.731 408.723,210.221C400.857,216.549 390.281,219.749 379.973,216.781C369.663,213.815 360.93,205.009 355.473,191.657L372.753,184.595C376.745,194.359 381.42,197.745 385.128,198.815C388.836,199.881 392.895,198.963 397.003,195.657C405.219,189.047 411.285,173.747 401.409,156.627L401.129,156.157L400.909,155.657C390.209,130.837 358.949,122.324 334.689,133.032C300.626,148.069 289.095,191.084 304.003,224.377C324.53,270.223 381.973,285.554 426.378,265.252C486.535,237.752 506.508,161.924 479.472,103.439C454.735,49.936 398.062,20.955 340.564,19.596C338.931,19.556 337.292,19.526 335.658,19.533L335.656,19.53ZM309.906,46.25C313.144,46.285 316.269,46.598 319.312,47.156C329.655,49.054 339.258,53.909 348.344,60.406C317.721,54.969 290.02,65.018 267.564,85.188C245.124,105.34 228.404,135.778 221.781,169.906C217.126,158.548 214.615,148.444 215.095,138.186C215.391,131.843 216.81,125.23 219.875,117.969C228.969,99.953 240.907,84.023 255.095,71.279C262.919,64.253 271.485,58.209 280.625,53.374C291.557,48.162 301.147,46.154 309.907,46.249L309.906,46.25ZM432.844,108.563C455.427,121.73 467.209,150.423 465.781,179.219C465.217,190.614 462.315,202.194 456.876,212.843C444.396,231.78 421.346,238.353 406.906,233.718L406.814,233.468C434.757,223.103 445.994,201.091 447.126,178.278C447.25,175.778 447.241,173.284 447.096,170.81C448.543,157.5 446.684,142.017 441.626,127.373C439.382,120.877 436.476,114.483 432.782,108.653L432.846,108.56L432.844,108.563ZM297.281,109.875C276.311,129.217 267.875,145.127 264.031,161.125C260.183,177.148 261.243,193.965 261.126,214C260.986,237.79 258.566,265.542 242.688,299.688C242.683,299.7 242.663,299.706 242.658,299.718C221.563,326.471 197.382,351.968 173.751,367.094L173.688,367.064C237.883,295.519 242.215,252.272 242.438,213.874C242.55,194.677 241.185,176.28 245.876,156.75C246.446,154.38 247.109,152.008 247.876,149.625L247.906,149.625C256.004,132.589 264.478,123.567 273.376,118.062C280.556,113.622 288.411,111.365 297.282,109.875L297.281,109.875Z" style="fill:rgb(158,103,61);fill-rule:nonzero;"/>
</svg>
